!!!COM: Corelli, Arcangelo
!!!OPR: Church Sonata in D Major
!!!ONM: Opus 5, No. 1
!!!OTL: Allegro 
!!!OMV: 4
!!!YOR:
!!!EED: Frances Bennion
!!!ENC: Frances Bennion
!!!CDT: 1653/2/17/-1713/1/8/
!!!OCY: Italia
!!!YEC: Copyright (c) 1994, 2000 Center for Computer Assisted Research in the Humanities
!!!YEM: Rights to all derivative editions reserved.
!!!YEM: Refer to licensing agreement for further details.
!!!YEN: United States of America
**kern	**kern	**kern
*k[f#c#]	*k[f#c#]	*k[f#c#]
*D:	*D:	*D:
*clefG	*clefG	*clefC
*M6/8	*M6/8	*M6/8
*tb16	*tb16	*tb16
=1	=1	=1
8r	2.r	2.r
8ff#	.	.
8ff#	.	.
8gg	.	.
8aa	.	.
8aa	.	.
=2	=2	=2
8dd	2r	2.r
16bb	.	.
16aa	.	.
16gg	.	.
16ff#	.	.
8ee	.	.
8aa	8cc#	.
8aa	8cc#	.
=3	=3	=3
8aa	8dd	2.r
8gg#	8ee	.
8gg#	8ee	.
8cc#	8a	.
16ff#	4r	.
16ee	.	.
16dd	.	.
16cc#	.	.
=4	=4	=4
8b	8g	2r
8ee	8g	.
8ee	8g	.
8a	8f#	.
8dd	8f#	8F#
8dd	8f#	8F#
=5	=5	=5
8dd	8e	8G
4cc#	4e	8A
.	.	8A
8dd	8f#	8D
8ff#	8dd	16B
.	.	16A
8ff#	8dd	16G
.	.	16F#
=6	=6	=6
8gg#	8dd	8E
8aa	8cc#	8C#
8aa	8a	8C#
8aa	8b	8D
4gg#	4b	8E
.	.	8E
=7	=7	=7
8aa	8a	8AA
16ff#	4.r	4.A
16ee	.	.
16dd	.	.
16cc#	.	.
8b	.	.
8ee	8b	[4G
8ee	8b	.
=8	=8	=8
8cc#	8a	8G]
8dd	8f#	8F#
8dd	8f#	8B
8dd	8g	8E
8cc#	8a	8A
8cc#	8a	8AA
=9	=9	=9
8f#	8d	8r
16b	2r	4.d
16a	.	.
16g	.	.
16f#	.	.
8e	.	.
16a	.	[4c#
16g	.	.
16f#	8r	.
16e	.	.
=10	=10	=10
8d	8r	8c#]
8dd	8f#	8B
8dd	8f#	8A
8dd	8e	8G#
8cc#	8e	8A
8cc#	8e	8AA
=11	=11	=11
8cc#	8d	4D
8b	8f#	.
8dd	8f#	8D
8b	8g#	4E
8ee	8g#	.
8ee	8e	8C#
=12	=12	=12
8ee	8f#	4D
16dd	8f#	.
16cc#	.	.
8dd	8f#	8D
8dd	8g#	8E
8a	8c#	8c#
8a	8c#	8c#
=13	=13	=13
8a	8B	8d
4g#	4B	8e
.	.	8e
8a	8A	8A
4a	[4a	16f#
.	.	16e
.	.	16d
.	.	16c#
=14	=14	=14
8b	8a]	8B
4b	4.g	8e
.	.	8e
8cc#	.	8A
[4dd	4f#	8F#
.	.	8F#
=15	=15	=15
8dd]	8e	8G
4cc#	4e	8A
.	.	8A
8dd	8f#	8D
[4b	4r	16G
.	.	16F#
.	.	16E
.	.	16D
=16	=16	=16
8b]	8c# 8e	8C#
4.a	4r	8F#
.	.	8F#
.	8B 8d	8BB
4g	4r	16E
.	.	16D
.	.	16C#
.	.	16BB
=17	=17	=17
4g	4c#	4AA
4f#	4d	8D
.	.	8GG
4e	4A	4AA
=18	=18	=18
16d	2.r	8D
16dd	.	.
16ff#	.	4.d
16aa	.	.
16ff#	.	.
16dd	.	.
16ee	.	.
16gg	.	.
16ee	.	4c#
16cc#	.	.
16a	.	.
16aa	.	.
=19	=19	=19
16ff#	2.r	8r
16aa	.	.
16ddd	.	8F#
16ccc#	.	.
16ddd	.	8F#
16ff#	.	.
16ee	.	8G
16ddd	.	.
16ccc#	.	8A
16bb	.	.
16ccc#	.	8A
16ee	.	.
=20	=20	=20
16dd	2.r	8D
16a	.	.
16cc#	.	4.A
16ee	.	.
16cc#	.	.
16a	.	.
16b	.	.
16dd	.	.
16b	.	4G#
16g#	.	.
16e	.	.
16ee	.	.
=21	=21	=21
16cc#	2.r	8r
16ee	.	.
16aa	.	8C#
16gg#	.	.
16aa	.	8C#
16cc#	.	.
16b	.	8D
16aa	.	.
16gg#	.	8E
16ff#	.	.
16gg#	.	8E
16b	.	.
=22	=22	=22
16a	2.r	8AA
16ee	.	.
16aa	.	4.A
16bb	.	.
16ccc#	.	.
16aa	.	.
16bb	.	.
16aa	.	.
16bb	.	4G
16ccc#	.	.
16ddd	.	.
16bb	.	.
=23	=23	=23
16ccc#	2.r	8r
16a	.	.
16dd	.	8FF#
16cc#	.	.
16dd	.	8FF#
16f#	.	.
16e	.	8GG
16dd	.	.
16cc#	.	8AA
16b	.	.
16cc#	.	8AA
16e	.	.
=24	=24	=24
16d	2.r	4DD
16aa	.	.
16ddd	.	.
16ff#	.	.
16ee	.	8D
16dd	.	.
16ee	.	4A
16ddd	.	.
16ccc#	.	.
16bb	.	.
16ccc#	.	8A#
16ee	.	.
=25	=25	=25
16dd	2.r	4B
16ccc#	.	.
16bb	.	.
16aa#	.	.
16bb	.	8D
16dd	.	.
16ee	.	8C#
16bb	.	.
16aa#	.	4F#
16bb	.	.
16ff#	.	.
16aa#	.	.
=26	=26	=26
16bb	2.r	8BB
16ff#	.	.
16dd	.	8B
16ff#	.	.
16cc#	.	8A#
16ff#	.	.
16dd	.	8B
16ff#	.	.
16dd	.	8D
16ff#	.	.
16cc#	.	8F#
16ff#	.	.
=27	=27	=27
16dd	2.r	8BB
16ee	.	.
16cc#	.	8A
16ee	.	.
16b	.	8G#
16ee	.	.
16cc#	.	8A
16ee	.	.
16cc#	.	8C#
16ee	.	.
16b	.	8E
16ee	.	.
=28	=28	=28
16cc#	2.r	8AA
16cc#	.	.
16a	.	8F#
16cc#	.	.
16g#	.	8E#
16cc#	.	.
16a	.	8F#
16cc#	.	.
16a	.	8AA
16cc#	.	.
16g#	.	8C#
16cc#	.	.
=29	=29	=29
16a	2.r	8FF#
16cc#	.	.
16a	.	8F#
16cc#	.	.
16g#	.	8E
16cc#	.	.
16f#	.	4D
16b	.	.
16f#	.	.
16b	.	.
16f#	.	8BB
16b	.	.
=30	=30	=30
4b 4e#	4c#	4C#
4a 4f#	4c#	8F#
.	.	8BB
8.f#	4r	4C#
16e#	.	.
=31	=31	=31
16f#	2.r	8F#
16cc#	.	.
16a	.	8f#
16cc#	.	.
16g#	.	8e#
16cc#	.	.
16a	.	8f#
16cc#	.	.
16a	.	8A
16cc#	.	.
16g#	.	8c#
16cc#	.	.
=32	=32	=32
16a	2.r	8F#
16ff#	.	.
16dd	.	8B
16ff#	.	.
16cc#	.	8A#
16ff#	.	.
16dd	.	8B
16ff#	.	.
16dd	.	8D
16ff#	.	.
16cc#	.	8F#
16ff#	.	.
=33	=33	=33
16dd	2.r	8BB
16b	.	.
16g#	.	8e
16b	.	.
16f#	.	8d#
16b	.	.
16g#	.	8e
16b	.	.
16g#	.	8G#
16b	.	.
16f#	.	8B
16b	.	.
=34	=34	=34
16g#	2.r	8E
16ee	.	.
16cc#	.	8A
16ee	.	.
16b	.	8G#
16ee	.	.
16cc#	.	8A
16ee	.	.
16cc#	.	8C#
16ee	.	.
16b	.	8E
16ee	.	.
=35	=35	=35
16cc#	2.r	8AA
16a	.	.
16f#	.	8d
16a	.	.
16e	.	8c#
16a	.	.
16f#	.	8d
16a	.	.
16f#	.	8F#
16a	.	.
16e	.	8A
16a	.	.
=36	=36	=36
16f#	2.r	4.D
16d	.	.
16f#	.	.
16b	.	.
16f#	.	.
16b	.	.
16g#	.	4.E
16e	.	.
16g#	.	.
16cc#	.	.
16g#	.	.
16cc#	.	.
=37	=37	=37
16a	2.r	4.F#
16f#	.	.
16a	.	.
16dd	.	.
16a	.	.
16dd	.	.
16b	.	4.G#
16g#	.	.
16b	.	.
16ee	.	.
16b	.	.
16ee	.	.
=38	=38	=38
16cc#	2.r	4.AA
16a	.	.
16cc#	.	.
16ff#	.	.
16cc#	.	.
16ff#	.	.
16dd	.	4.BB
16b	.	.
16dd	.	.
16gg#	.	.
16ff#	.	.
16gg#	.	.
=39	=39	=39
16ee	2.r	4.C#
16cc#	.	.
16ee	.	.
16aa	.	.
16ee	.	.
16aa	.	.
16ff#	.	4.D
16dd	.	.
16ff#	.	.
16bb	.	.
16ff#	.	.
16bb	.	.
=40	=40	=40
16gg#	2r	4E
16ee	.	.
16ff#	.	.
16gg#	.	.
16aa	.	8C#
16b	.	.
16cc#	.	8D
16d	.	.
4b	4e	8E
.	.	8EE
=41	=41	=41
8a	2.r	8AA
8c#	.	4.A
8c#	.	.
8d	.	.
8e	.	[4G
8e	.	.
=42	=42	=42
8r	8A	8G]
8a	8a	4F#
8a	8a	.
8b	8a	4.GG
8b	8g	.
8b	8g	.
=43	=43	=43
8cc#	8g	8AA
4.dd	4f#	8F#
.	.	8F#
.	8e	8G
4cc#	4e	8A
.	.	8A
=44	=44	=44
8dd	8f#	8D
4bb	2r	16G
.	.	16F#
.	.	16E
.	.	16D
8ee	.	8C#
16aa	.	8F#
16gg#	.	.
8aa	8r	8F#
=45	=45	=45
8dd	8r	8BB
4gg	4dd	16E
.	.	16D
.	.	16C#
.	.	16BB
4gg	4cc#	4AA
[8ff#	[8dd	8D
=46	=46	=46
8ff#]	8dd]	8GG
4ee	4a	4AA
8dd	8f#	8D
[4b	4r	16G
.	.	16F#
.	.	16E
.	.	16D
=47	=47	=47
8b]	8c# 8e	8C#
4.a	4r	8F#
.	.	8F#
.	8B 8d	8BB
4g	4r	16E
.	.	16D
.	.	16C#
.	.	16BB
=48	=48	=48
4cc# 4g	4A	4AA
8dd	4r	8BB
16d	.	8GG
16e	.	.
4e	4A	4AA
=49	=49	=49
4d	4d	4D
8b	8d	8GG
4e	4c#	4AA
[8f#	[8d	8D
=50	=50	=50
8f#]	8d]	8GG
4e	4A	4AA
4.d	4.d	4.DD
==	==	==
*-	*-	*-
!!!RWG1: This file contains only pitch and duration data.
!!!RWG2: Transposing instruments are not transposed.
!!!RWG3: Spines may have incompatible meters.
!!!RWG4: Durations of rests and tied notes may be interpreted.
!!!RWG: Key is interpreted using the Humdrum key tool.
!!!AFT: stage1
!!!END: 1997/04/15
!!format changes:
!!content changes:
!!public access: complete
!!!KEY: 3195823569
!!!EMD: Converted from MuseData to Humdrum Dec 16, 2000, by Andreas Kornstaedt using muse2kern.
